static/img/kroki/7bcc8d265b1b4db0a2a0e9c64933d8c3.svg

<?xml version="1.0" encoding="us-ascii" standalone="no"?><svg xmlns="http://www.w3.org/2000/svg" xmlns:xlink="http://www.w3.org/1999/xlink" contentStyleType="text/css" height="374px" preserveAspectRatio="none" style="width:339px;height:374px;" version="1.1" viewBox="0 0 339 374" width="339px" zoomAndPan="magnify"><defs/><g><!--class azure_resource_group--><g id="elem_azure_resource_group"><rect codeLine="23" fill="#3D176E" height="39.7891" id="azure_resource_group" rx="2.5" ry="2.5" style="stroke:#000D19;stroke-width:0.5;" width="225" x="28.5" y="328.58"/><ellipse cx="43.5" cy="348.4745" fill="#ADD1B2" rx="11" ry="11" style="stroke:#181818;stroke-width:1.0;"/><path d="M46.4688,354.1152 Q45.8906,354.412 45.25,354.5527 Q44.6094,354.7089 43.9063,354.7089 Q41.4063,354.7089 40.0781,353.0683 Q38.7656,351.412 38.7656,348.287 Q38.7656,345.162 40.0781,343.5058 Q41.4063,341.8495 43.9063,341.8495 Q44.6094,341.8495 45.25,342.0058 Q45.9063,342.162 46.4688,342.4589 L46.4688,345.1777 Q45.8438,344.5995 45.25,344.3339 Q44.6563,344.0527 44.0313,344.0527 Q42.6875,344.0527 42,345.1308 Q41.3125,346.1933 41.3125,348.287 Q41.3125,350.3808 42,351.4589 Q42.6875,352.5214 44.0313,352.5214 Q44.6563,352.5214 45.25,352.2558 Q45.8438,351.9745 46.4688,351.3964 L46.4688,354.1152 Z " fill="#000000"/><text fill="#D9B8FF" font-family="Helvetica" font-size="17" lengthAdjust="spacing" textLength="183" x="62.5" y="354.3598">azure_resource_group</text></g><!--class group--><g id="elem_group"><rect codeLine="26" fill="#3D176E" height="39.7891" id="group" rx="2.5" ry="2.5" style="stroke:#000D19;stroke-width:0.5;" width="90" x="7" y="167.79"/><ellipse cx="22" cy="187.6845" fill="#ADD1B2" rx="11" ry="11" style="stroke:#181818;stroke-width:1.0;"/><path d="M24.9688,193.3252 Q24.3906,193.622 23.75,193.7627 Q23.1094,193.9189 22.4063,193.9189 Q19.9063,193.9189 18.5781,192.2783 Q17.2656,190.622 17.2656,187.497 Q17.2656,184.372 18.5781,182.7158 Q19.9063,181.0595 22.4063,181.0595 Q23.1094,181.0595 23.75,181.2158 Q24.4063,181.372 24.9688,181.6689 L24.9688,184.3877 Q24.3438,183.8095 23.75,183.5439 Q23.1563,183.2627 22.5313,183.2627 Q21.1875,183.2627 20.5,184.3408 Q19.8125,185.4033 19.8125,187.497 Q19.8125,189.5908 20.5,190.6689 Q21.1875,191.7314 22.5313,191.7314 Q23.1563,191.7314 23.75,191.4658 Q24.3438,191.1845 24.9688,190.6064 L24.9688,193.3252 Z " fill="#000000"/><text fill="#D9B8FF" font-family="Helvetica" font-size="17" lengthAdjust="spacing" textLength="48" x="41" y="193.5698">group</text></g><!--class microsoft_resource--><g id="elem_microsoft_resource"><rect codeLine="29" fill="#3D176E" height="39.7891" id="microsoft_resource" rx="2.5" ry="2.5" style="stroke:#000D19;stroke-width:0.5;" width="200" x="132" y="167.79"/><ellipse cx="147" cy="187.6845" fill="#ADD1B2" rx="11" ry="11" style="stroke:#181818;stroke-width:1.0;"/><path d="M149.9688,193.3252 Q149.3906,193.622 148.75,193.7627 Q148.1094,193.9189 147.4063,193.9189 Q144.9063,193.9189 143.5781,192.2783 Q142.2656,190.622 142.2656,187.497 Q142.2656,184.372 143.5781,182.7158 Q144.9063,181.0595 147.4063,181.0595 Q148.1094,181.0595 148.75,181.2158 Q149.4063,181.372 149.9688,181.6689 L149.9688,184.3877 Q149.3438,183.8095 148.75,183.5439 Q148.1563,183.2627 147.5313,183.2627 Q146.1875,183.2627 145.5,184.3408 Q144.8125,185.4033 144.8125,187.497 Q144.8125,189.5908 145.5,190.6689 Q146.1875,191.7314 147.5313,191.7314 Q148.1563,191.7314 148.75,191.4658 Q149.3438,191.1845 149.9688,190.6064 L149.9688,193.3252 Z " fill="#000000"/><text fill="#D9B8FF" font-family="Helvetica" font-size="17" lengthAdjust="spacing" textLength="158" x="166" y="193.5698">microsoft_resource</text></g><!--class resource--><g id="elem_resource"><rect codeLine="32" fill="#3D176E" height="39.7891" id="resource" rx="2.5" ry="2.5" style="stroke:#000D19;stroke-width:0.5;" width="113" x="84.5" y="7"/><ellipse cx="99.5" cy="26.8945" fill="#ADD1B2" rx="11" ry="11" style="stroke:#181818;stroke-width:1.0;"/><path d="M102.4688,32.5352 Q101.8906,32.832 101.25,32.9727 Q100.6094,33.1289 99.9063,33.1289 Q97.4063,33.1289 96.0781,31.4883 Q94.7656,29.832 94.7656,26.707 Q94.7656,23.582 96.0781,21.9258 Q97.4063,20.2695 99.9063,20.2695 Q100.6094,20.2695 101.25,20.4258 Q101.9063,20.582 102.4688,20.8789 L102.4688,23.5977 Q101.8438,23.0195 101.25,22.7539 Q100.6563,22.4727 100.0313,22.4727 Q98.6875,22.4727 98,23.5508 Q97.3125,24.6133 97.3125,26.707 Q97.3125,28.8008 98,29.8789 Q98.6875,30.9414 100.0313,30.9414 Q100.6563,30.9414 101.25,30.6758 Q101.8438,30.3945 102.4688,29.8164 L102.4688,32.5352 Z " fill="#000000"/><text fill="#D9B8FF" font-family="Helvetica" font-size="17" lengthAdjust="spacing" textLength="71" x="118.5" y="32.7798">resource</text></g><!--reverse link group to azure_resource_group--><g id="link_group_azure_resource_group"><path codeLine="35" d="M71.5383,223.5432 C88.6383,254.0632 113.1,297.69 130.23,328.25 " fill="none" id="group-backto-azure_resource_group" style="stroke:#FFAF37;stroke-width:2.0;"/><polygon fill="none" points="62.74,207.84,66.3039,226.4759,76.7727,220.6104,62.74,207.84" style="stroke:#FFAF37;stroke-width:2.0;"/></g><!--reverse link microsoft_resource to azure_resource_group--><g id="link_microsoft_resource_azure_resource_group"><path codeLine="36" d="M212.0702,223.4573 C194.5802,253.9773 169.53,297.69 152.02,328.25 " fill="none" id="microsoft_resource-backto-azure_resource_group" style="stroke:#FFAF37;stroke-width:2.0;"/><polygon fill="none" points="221.02,207.84,206.8644,220.4741,217.276,226.4406,221.02,207.84" style="stroke:#FFAF37;stroke-width:2.0;"/></g><!--reverse link resource to group--><g id="link_resource_group"><path codeLine="37" d="M121.4617,62.7532 C104.3617,93.2732 79.9,136.9 62.77,167.46 " fill="none" id="resource-backto-group" style="stroke:#FFAF37;stroke-width:2.0;"/><polygon fill="none" points="130.26,47.05,116.2273,59.8204,126.6961,65.6859,130.26,47.05" style="stroke:#FFAF37;stroke-width:2.0;"/></g><!--reverse link resource to microsoft_resource--><g id="link_resource_microsoft_resource"><path codeLine="38" d="M160.9298,62.6673 C178.4198,93.1873 203.47,136.9 220.98,167.46 " fill="none" id="resource-backto-microsoft_resource" style="stroke:#FFAF37;stroke-width:2.0;"/><polygon fill="none" points="151.98,47.05,155.724,65.6506,166.1356,59.6841,151.98,47.05" style="stroke:#FFAF37;stroke-width:2.0;"/></g><!--SRC=[XP31ReCm44JlV8Mbd96WKKkGUacGglOILKtlaS7hO85jj3QDahR_tbBIoC64N6VUpivkAHWGa8qz40ao1pI1gOHgA599beXwd-bQ8vbnJlay6PfFMjcRm9fA8CzGVu0L1HqIxwKeAWN6a3l7Mj6Ysg5k5UlZBL9bVYrGrg6ocXgpj1P5tbfmoh0qNt0-98UXipcBamVmC8qCy8H4KSJYT8ZSN3LvzvdOY2EGs7tQMblmQdeh_gZ9bXtXbFGE_VUlTdobZ0cr8_UEzjPtGWLueMzAolI-epcjZRl6M43Gzj10vbq5wOBnP1H-kGO7HVSwGeyjmXR1w1OBs7PaGpw3uFlaUu8K1MgZkJqFkUwbrWy_VeLXEBee60cRe0VCgEWd1Zy0]--></g></svg>

<svg xmlns="http://www.w3.org/2000/svg" width="339" height="374" viewBox="0 0 339 374"><rect width="225" height="39.789" x="28.5" y="328.58" fill="#3D176E" rx="2.5" ry="2.5" style="stroke:#000d19;stroke-width:.5"/><circle cx="43.5" cy="348.474" r="11" fill="#ADD1B2" style="stroke:#181818;stroke-width:1"/><path d="M46.469 354.115q-.578.297-1.219.438-.64.156-1.344.156-2.5 0-3.828-1.64-1.312-1.657-1.312-4.782t1.312-4.781q1.328-1.656 3.828-1.656.703 0 1.344.156.656.156 1.219.453v2.719q-.625-.579-1.219-.844-.594-.281-1.219-.281-1.343 0-2.031 1.078-.687 1.062-.687 3.156t.687 3.172q.688 1.062 2.031 1.062.625 0 1.219-.265.594-.281 1.219-.86z"/><text x="62.5" y="354.36" fill="#D9B8FF" font-family="Helvetica" font-size="17" textLength="183">azure_resource_group</text><rect width="90" height="39.789" x="7" y="167.79" fill="#3D176E" rx="2.5" ry="2.5" style="stroke:#000d19;stroke-width:.5"/><circle cx="22" cy="187.685" r="11" fill="#ADD1B2" style="stroke:#181818;stroke-width:1"/><path d="M24.969 193.325q-.578.297-1.219.438-.64.156-1.344.156-2.5 0-3.828-1.64-1.312-1.657-1.312-4.782t1.312-4.781q1.328-1.656 3.828-1.656.703 0 1.344.156.656.156 1.219.453v2.719q-.625-.578-1.219-.844-.594-.281-1.219-.281-1.343 0-2.031 1.078-.687 1.062-.687 3.156t.687 3.172q.688 1.062 2.031 1.062.625 0 1.219-.265.594-.281 1.219-.86z"/><text x="41" y="193.57" fill="#D9B8FF" font-family="Helvetica" font-size="17" textLength="48">group</text><rect width="200" height="39.789" x="132" y="167.79" fill="#3D176E" rx="2.5" ry="2.5" style="stroke:#000d19;stroke-width:.5"/><circle cx="147" cy="187.685" r="11" fill="#ADD1B2" style="stroke:#181818;stroke-width:1"/><path d="M149.969 193.325q-.578.297-1.219.438-.64.156-1.344.156-2.5 0-3.828-1.64-1.312-1.657-1.312-4.782t1.312-4.781q1.328-1.656 3.828-1.656.703 0 1.344.156.656.156 1.219.453v2.719q-.625-.578-1.219-.844-.594-.281-1.219-.281-1.344 0-2.031 1.078-.687 1.062-.687 3.156t.687 3.172q.688 1.062 2.031 1.062.625 0 1.219-.265.594-.281 1.219-.86z"/><text x="166" y="193.57" fill="#D9B8FF" font-family="Helvetica" font-size="17" textLength="158">microsoft_resource</text><rect width="113" height="39.789" x="84.5" y="7" fill="#3D176E" rx="2.5" ry="2.5" style="stroke:#000d19;stroke-width:.5"/><circle cx="99.5" cy="26.895" r="11" fill="#ADD1B2" style="stroke:#181818;stroke-width:1"/><path d="M102.469 32.535q-.578.297-1.219.438-.64.156-1.344.156-2.5 0-3.828-1.64-1.312-1.657-1.312-4.782t1.312-4.781q1.328-1.656 3.828-1.656.703 0 1.344.156.656.156 1.219.453v2.719q-.625-.578-1.219-.844-.594-.281-1.219-.281-1.344 0-2.031 1.078-.687 1.062-.687 3.156T98 29.879q.688 1.062 2.031 1.062.625 0 1.219-.265.594-.281 1.219-.86z"/><text x="118.5" y="32.78" fill="#D9B8FF" font-family="Helvetica" font-size="17" textLength="71">resource</text><g fill="none"><path d="M71.538 223.543c17.1 30.52 41.562 74.147 58.692 104.707" style="stroke:#ffaf37;stroke-width:2"/><path d="m62.74 207.84 3.564 18.636 10.469-5.866z" style="stroke:#ffaf37;stroke-width:2"/></g><g fill="none"><path d="M212.07 223.457c-17.49 30.52-42.54 74.233-60.05 104.793" style="stroke:#ffaf37;stroke-width:2"/><path d="m221.02 207.84-14.156 12.634 10.412 5.967z" style="stroke:#ffaf37;stroke-width:2"/></g><g fill="none"><path d="M121.462 62.753C104.362 93.273 79.9 136.9 62.77 167.46" style="stroke:#ffaf37;stroke-width:2"/><path d="m130.26 47.05-14.033 12.77 10.47 5.866z" style="stroke:#ffaf37;stroke-width:2"/></g><path fill="none" d="M160.93 62.667c17.49 30.52 42.54 74.233 60.05 104.793m-69-120.41 3.744 18.6 10.412-5.966z" style="stroke:#ffaf37;stroke-width:2"/></svg>
